X:29
T:Nylandspojkarnas nerifr{\aa}n
T:Polska efter Nylands Erik
R:polska J
A:Bingsj\"o, Dalarna
Z:id:hn-jp-29
M:3/4
L:1/16
K:A
A,2CE A4 c4 | e2a2 f2ed c4 | B4 B2c2 d2dB | EGBG A2AE C2EC |
A,2CE A4 c4 | e2a2 f2ed c4 | B3c d2fd c2ec | B2AG A8 :|
|: ABcd e2ae c2ec | ABcd e2ce a4 | Adfd Adfd Adfd | Acec Acec Acec |
Adfd Adfd Adfd | Acec Acec Acec | cdcB A4 E4 | A2A2 B2AB c4 | 
B3c d2e2 f2a2 | gabg a8 :|
<end>
<start>
